X:1
T: Oor Auld Guidman is noo awa'
C:
R:Strathspey
Q: 128
K:Bb
M:4/4
L:1/16
|:F2|B4 B3c d3c d3g|f3d c3B G6 B2|F3d B3g d3b g3e|fd3 c3f B6 F2|
B4 B3c d3c d3g|f3d c3B G6 B2|((3FBF) E3B D3B C3g|fd3 c3f B6 a2|
((3bag) ((3agf) g3f d3g|fd3 c3B G6 B2|b3f g3e f3d b3g|fd3 c3f B6 a2|
((3bag) ((3agf) g3f d3g|fd3 c3B G6 B2|((3FBF) ((3EBE) ((3DBD) C3g|fd3 c3f B6:|
